X: 1
T: Dawns Forys
M: 3/4
L: 1/8
R: waltz
K: Dmaj
dA BG AF|GE FD EC|D/E/F/G/ EF BA|Bc de cA|
ae fd ec|dB c/d/e/d/ cA|d/e/f/g/ af eg|fa ea cA|
af ge fd|ec dB cA|B/c/d/B/ A/B/A/G/ A/G/F/E/|DB A/G/F/E/ D2||
